dist/assets/img/svg/icon-wh-02.svg

<svg width="85" height="114" viewBox="0 0 85 114" fill="none" xmlns="http://www.w3.org/2000/svg">
<g id="Group 18">
<path id="Vector" d="M61.8598 84.2847C61.0298 84.2847 60.1998 84.1447 59.5098 83.8747L52.8698 81.8047L47.6198 86.6447C47.4798 86.7847 47.2098 86.9247 47.0698 87.0547L55.3698 112.775C55.6498 113.605 56.8898 113.885 57.4398 113.185L63.5198 105.445C63.7998 105.035 64.3498 104.895 64.7598 105.035L74.1598 107.805C75.1298 108.085 75.9598 107.255 75.5398 106.285L67.6598 81.9447C66.1398 83.3247 64.0698 84.2947 61.8498 84.2947L61.8598 84.2847Z" fill="#EC8020"/>
<path id="Vector_2" d="M10.1498 107.655L19.5498 104.885C19.9598 104.745 20.5198 104.885 20.7898 105.305L26.8698 113.045C27.4198 113.735 28.6698 113.595 28.9398 112.625L37.2398 86.9049C37.0998 86.7649 36.8298 86.6249 36.6898 86.4949L31.5698 81.7949L24.9298 83.8649C24.0998 84.1449 23.4098 84.2849 22.5798 84.2849C20.3698 84.2849 18.2898 83.3149 16.7698 81.7949L8.88981 106.135C8.33981 107.105 9.16981 107.935 10.1298 107.655H10.1498Z" fill="#EC8020"/>
<path id="Vector_3" d="M59.7201 28.7946C55.7401 28.4846 52.4801 26.1146 51.0301 22.5946L50.8801 22.2346C49.3701 18.7146 45.9301 16.4346 42.1201 16.4346C38.3101 16.4346 34.8501 18.7646 33.3101 22.3646L33.2201 22.5946C31.7701 26.1246 28.5101 28.4946 24.7101 28.7846C20.8401 29.0646 17.6201 31.5446 16.3901 35.1046C15.1401 38.7246 16.1601 42.7346 19.0101 45.3246L19.3201 45.5846C22.2401 48.0746 23.4801 51.9246 22.5501 55.6446L22.4601 56.0246C21.8601 58.8246 22.5601 61.7546 24.3801 64.0046C26.2001 66.2546 28.8901 67.5546 31.7601 67.5546C33.5101 67.5546 35.2301 67.0646 36.7301 66.1446L36.9701 65.9946C40.2001 64.0146 44.2101 64.0146 47.4401 65.9946L47.6601 66.1346C49.1801 67.0646 50.9101 67.5646 52.6701 67.5646C55.6501 67.5646 58.5001 66.1446 60.3001 63.7546C62.0501 61.4346 62.6201 58.4946 61.8701 55.6946C60.9401 51.9446 62.1701 48.0846 65.1001 45.5946C68.1101 43.1346 69.2701 39.1446 68.0801 35.4146C66.8801 31.6546 63.6001 29.0646 59.7301 28.8046L59.7201 28.7946ZM60.5401 39.9846L52.2701 47.0146L54.8901 57.4946C55.4401 59.4246 53.2301 61.0846 51.4401 59.9746L42.2001 54.3246L32.9601 59.9746C31.1701 61.0746 29.1001 59.4246 29.5101 57.4946L32.1301 47.0146L23.8601 39.9846C22.3401 38.6046 23.1701 36.1246 25.1001 35.9846L35.8601 35.1546L40.0001 25.0846C40.8301 23.1546 43.4501 23.1546 44.2801 25.0846L48.4201 35.1546L59.1801 35.9846C61.2501 36.1246 62.0801 38.7446 60.5601 39.9846H60.5401Z" fill="#EC8020"/>
<path id="Vector_4" d="M83.2899 43.985C84.3899 43.015 84.3899 41.225 83.2899 40.125L76.6699 34.335C75.8399 33.645 75.5699 32.545 75.9799 31.575L78.8799 23.165C79.4299 21.645 78.4699 20.135 76.9499 19.855L68.1199 18.205C67.1499 18.065 66.3299 17.235 66.1899 16.275L64.5299 7.445C64.2499 5.925 62.7399 5.105 61.2199 5.515L52.6699 8.275C51.6999 8.555 50.5999 8.275 49.9099 7.585L43.9899 0.825C43.0199 -0.275 41.2299 -0.275 40.1299 0.825L34.1999 7.585C33.5099 8.415 32.4099 8.685 31.4399 8.275L23.0299 5.375C21.5099 4.825 19.9999 5.785 19.7199 7.305L18.0699 16.135C17.9299 17.105 17.0999 17.925 16.1399 18.065L7.30988 19.725C5.78988 20.005 4.96988 21.515 5.37988 23.035L8.27988 31.445C8.55988 32.415 8.27988 33.515 7.58988 34.205L0.829883 40.125C-0.270117 41.095 -0.270117 42.885 0.829883 43.985L7.58988 49.915C8.41988 50.605 8.68988 51.705 8.27988 52.675L5.37988 61.085C4.82988 62.605 5.78988 64.115 7.30988 64.395L16.1399 66.045C17.1099 66.185 17.9299 67.015 18.0699 67.975L19.7199 76.805C19.9999 78.325 21.5099 79.145 23.0299 78.735L31.4399 75.835C32.4099 75.555 33.5099 75.835 34.1999 76.525L40.1299 83.285C41.0999 84.385 42.8899 84.385 43.9899 83.285L49.9199 76.525C50.6099 75.695 51.7099 75.425 52.6799 75.835L61.0899 78.735C62.6099 79.285 64.1199 78.325 64.3999 76.805L66.0499 67.975C66.1899 67.005 67.0199 66.185 67.9799 66.045L76.8099 64.395C78.3299 64.115 79.1499 62.605 78.7399 61.085L75.8399 52.675C75.5599 51.705 75.8399 50.605 76.5299 49.915L83.2899 43.985ZM66.3199 47.055C63.9699 49.055 62.9699 52.175 63.7199 55.185C64.6199 58.555 63.9299 62.095 61.8199 64.895C59.6599 67.755 56.2299 69.465 52.6499 69.465C50.5399 69.465 48.4599 68.875 46.6399 67.755L46.4199 67.625C43.8099 66.025 40.5599 66.025 37.9499 67.625L37.7199 67.765C35.9099 68.875 33.8499 69.465 31.7399 69.465C28.2899 69.465 25.0499 67.915 22.8699 65.205C20.6799 62.495 19.8399 58.985 20.5699 55.585L20.6699 55.175C21.4199 52.165 20.4199 49.045 18.0599 47.035L17.7299 46.755C14.2899 43.635 13.0599 38.815 14.5599 34.465C16.0499 30.165 19.9299 27.185 24.4399 26.865C27.6299 26.615 30.2599 24.705 31.4299 21.855L31.5299 21.615C33.3899 17.285 37.5399 14.505 42.1199 14.505C46.6999 14.505 50.8299 17.245 52.6499 21.485L52.7999 21.855C53.9699 24.705 56.6099 26.625 59.6799 26.855C64.4999 27.175 68.4499 30.295 69.8899 34.805C71.3199 39.285 69.9199 44.095 66.3099 47.045L66.3199 47.055Z" fill="#EC8020"/>
</g>
</svg>

<svg width="85" height="114" fill="none" xmlns="http://www.w3.org/2000/svg"><g fill="#EC8020"><path d="M61.86 84.285c-.83 0-1.66-.14-2.35-.41l-6.64-2.07-5.25 4.84c-.14.14-.41.28-.55.41l8.3 25.72c.28.83 1.52 1.11 2.07.41l6.08-7.74c.28-.41.83-.55 1.24-.41l9.4 2.77c.97.28 1.8-.55 1.38-1.52l-7.88-24.34c-1.52 1.38-3.59 2.35-5.81 2.35l.01-.01zm-51.71 23.37l9.4-2.77c.41-.14.97 0 1.24.42l6.08 7.74c.55.69 1.8.55 2.07-.42l8.3-25.72c-.14-.14-.41-.28-.55-.41l-5.12-4.7-6.64 2.07c-.83.28-1.52.42-2.35.42-2.21 0-4.29-.97-5.81-2.49l-7.88 24.34c-.55.97.28 1.8 1.24 1.52h.02zm49.57-78.86c-3.98-.31-7.24-2.68-8.69-6.2l-.15-.36a9.539 9.539 0 00-8.76-5.8c-3.81 0-7.27 2.33-8.81 5.93l-.09.23a9.973 9.973 0 01-8.51 6.19c-3.87.28-7.09 2.76-8.32 6.32a9.57 9.57 0 002.62 10.22l.31.26c2.92 2.49 4.16 6.34 3.23 10.06l-.09.38c-.6 2.8.1 5.73 1.92 7.98 1.82 2.25 4.51 3.55 7.38 3.55 1.75 0 3.47-.49 4.97-1.41l.24-.15a9.97 9.97 0 0110.47 0l.22.14c1.52.93 3.25 1.43 5.01 1.43 2.98 0 5.83-1.42 7.63-3.81a9.307 9.307 0 001.57-8.06c-.93-3.75.3-7.61 3.23-10.1 3.01-2.46 4.17-6.45 2.98-10.18-1.2-3.76-4.48-6.35-8.35-6.61l-.01-.01zm.82 11.19l-8.27 7.03 2.62 10.48c.55 1.93-1.66 3.59-3.45 2.48l-9.24-5.65-9.24 5.65c-1.79 1.1-3.86-.55-3.45-2.48l2.62-10.48-8.27-7.03c-1.52-1.38-.69-3.86 1.24-4l10.76-.83L40 25.085a2.306 2.306 0 014.28 0l4.14 10.07 10.76.83c2.07.14 2.9 2.76 1.38 4h-.02z"/><path d="M83.29 43.985c1.1-.97 1.1-2.76 0-3.86l-6.62-5.79c-.83-.69-1.1-1.79-.69-2.76l2.9-8.41c.55-1.52-.41-3.03-1.93-3.31l-8.83-1.65c-.97-.14-1.79-.97-1.93-1.93l-1.66-8.83c-.28-1.52-1.79-2.34-3.31-1.93l-8.55 2.76c-.97.28-2.07 0-2.76-.69L43.99.825c-.97-1.1-2.76-1.1-3.86 0l-5.93 6.76c-.69.83-1.79 1.1-2.76.69l-8.41-2.9c-1.52-.55-3.03.41-3.31 1.93l-1.65 8.83c-.14.97-.97 1.79-1.93 1.93l-8.83 1.66c-1.52.28-2.34 1.79-1.93 3.31l2.9 8.41c.28.97 0 2.07-.69 2.76l-6.76 5.92c-1.1.97-1.1 2.76 0 3.86l6.76 5.93c.83.69 1.1 1.79.69 2.76l-2.9 8.41c-.55 1.52.41 3.03 1.93 3.31l8.83 1.65c.97.14 1.79.97 1.93 1.93l1.65 8.83c.28 1.52 1.79 2.34 3.31 1.93l8.41-2.9c.97-.28 2.07 0 2.76.69l5.93 6.76c.97 1.1 2.76 1.1 3.86 0l5.93-6.76c.69-.83 1.79-1.1 2.76-.69l8.41 2.9c1.52.55 3.03-.41 3.31-1.93l1.65-8.83c.14-.97.97-1.79 1.93-1.93l8.83-1.65c1.52-.28 2.34-1.79 1.93-3.31l-2.9-8.41c-.28-.97 0-2.07.69-2.76l6.76-5.93zm-16.97 3.07a8.06 8.06 0 00-2.6 8.13c.9 3.37.21 6.91-1.9 9.71a11.557 11.557 0 01-9.17 4.57c-2.11 0-4.19-.59-6.01-1.71l-.22-.13a8.073 8.073 0 00-8.47 0l-.23.14c-1.81 1.11-3.87 1.7-5.98 1.7-3.45 0-6.69-1.55-8.87-4.26a11.432 11.432 0 01-2.3-9.62l.1-.41c.75-3.01-.25-6.13-2.61-8.14l-.33-.28a11.503 11.503 0 01-3.17-12.29c1.49-4.3 5.37-7.28 9.88-7.6 3.19-.25 5.82-2.16 6.99-5.01l.1-.24c1.86-4.33 6.01-7.11 10.59-7.11s8.71 2.74 10.53 6.98l.15.37a8.057 8.057 0 006.88 5c4.82.32 8.77 3.44 10.21 7.95 1.43 4.48.03 9.29-3.58 12.24l.01.01z"/></g></svg>5999 8.275 49.9099 7.585L43.9899 0.825C43.0199 -0.275 41.2299 -0.275 40.1299 0.825L34.1999 7.585C33.5099 8.415 32.4099 8.685 31.4399 8.275L23.0299 5.375C21.5099 4.825 19.9999 5.785 19.7199 7.305L18.0699 16.135C17.9299 17.105 17.0999 17.925 16.1399 18.065L7.30988 19.725C5.78988 20.005 4.96988 21.515 5.37988 23.035L8.27988 31.445C8.55988 32.415 8.27988 33.515 7.58988 34.205L0.829883 40.125C-0.270117 41.095 -0.270117 42.885 0.829883 43.985L7.58988 49.915C8.41988 50.605 8.68988 51.705 8.27988 52.675L5.37988 61.085C4.82988 62.605 5.78988 64.115 7.30988 64.395L16.1399 66.045C17.1099 66.185 17.9299 67.015 18.0699 67.975L19.7199 76.805C19.9999 78.325 21.5099 79.145 23.0299 78.735L31.4399 75.835C32.4099 75.555 33.5099 75.835 34.1999 76.525L40.1299 83.285C41.0999 84.385 42.8899 84.385 43.9899 83.285L49.9199 76.525C50.6099 75.695 51.7099 75.425 52.6799 75.835L61.0899 78.735C62.6099 79.285 64.1199 78.325 64.3999 76.805L66.0499 67.975C66.1899 67.005 67.0199 66.185 67.9799 66.045L76.8099 64.395C78.3299 64.115 79.1499 62.605 78.7399 61.085L75.8399 52.675C75.5599 51.705 75.8399 50.605 76.5299 49.915L83.2899 43.985ZM66.3199 47.055C63.9699 49.055 62.9699 52.175 63.7199 55.185C64.6199 58.555 63.9299 62.095 61.8199 64.895C59.6599 67.755 56.2299 69.465 52.6499 69.465C50.5399 69.465 48.4599 68.875 46.6399 67.755L46.4199 67.625C43.8099 66.025 40.5599 66.025 37.9499 67.625L37.7199 67.765C35.9099 68.875 33.8499 69.465 31.7399 69.465C28.2899 69.465 25.0499 67.915 22.8699 65.205C20.6799 62.495 19.8399 58.985 20.5699 55.585L20.6699 55.175C21.4199 52.165 20.4199 49.045 18.0599 47.035L17.7299 46.755C14.2899 43.635 13.0599 38.815 14.5599 34.465C16.0499 30.165 19.9299 27.185 24.4399 26.865C27.6299 26.615 30.2599 24.705 31.4299 21.855L31.5299 21.615C33.3899 17.285 37.5399 14.505 42.1199 14.505C46.6999 14.505 50.8299 17.245 52.6499 21.485L52.7999 21.855C53.9699 24.705 56.6099 26.625 59.6799 26.855C64.4999 27.175 68.4499 30.295 69.8899 34.805C71.3199 39.285 69.9199 44.095 66.3099 47.045L66.3199 47.055Z" fill="#EC8020"/>
</g>
</svg>
